img/svg/logos/8.svg

<svg width="75" height="22" viewBox="0 0 75 22" fill="none" xmlns="http://www.w3.org/2000/svg">
<path d="M72.4361 2.60722C72.4361 2.04324 72.4921 1.70485 72.8255 1.47926C73.326 1.25367 73.6033 1.14087 74.2149 1.02808C74.2149 1.02808 74.2709 0.915283 74.2149 0.915283H63.9341C63.8781 0.915283 63.8781 0.972125 63.9341 1.02808C64.4897 1.14087 64.8231 1.25367 65.3236 1.47926C65.7129 1.6489 65.7129 2.04324 65.7129 2.60722V13.043C65.7129 15.4126 64.3795 17.2173 61.7117 17.2173C59.044 17.2173 57.7105 15.4126 57.7105 13.043V2.60722C57.7105 2.04324 57.7665 1.70485 58.0999 1.47926C58.6004 1.25367 58.8777 1.14087 59.4893 1.02808C59.4893 1.02808 59.5453 0.915283 59.4893 0.915283H49.8184C49.7624 0.915283 49.7624 0.972125 49.8184 1.02808C50.1517 1.08492 50.374 1.19772 50.5962 1.42331C50.9296 1.70574 50.9856 2.04413 50.9856 2.6081V12.8183C50.9856 17.7262 53.6533 21.9565 61.7109 21.9565C69.7684 21.9565 72.4361 17.7822 72.4361 12.8183V2.60722Z" fill="#373737"/>
<path d="M9.36029 4.86403H12.4725C14.5287 4.86403 15.6959 5.20242 15.6959 7.06399C15.6959 8.30474 14.9732 9.37674 12.5285 9.37674H9.30517V4.86403H9.36029ZM9.36029 12.535H12.0832C13.8611 12.535 16.0844 12.535 16.0844 15.0734C16.0844 16.9349 14.5287 17.6117 12.3614 17.6117H9.36029V12.535ZM2.85844 2.60724V19.9253C2.85844 20.4893 2.80245 20.8277 2.46908 21.0533C1.96861 21.2789 1.69124 21.3917 1.07964 21.5045C1.07964 21.5045 1.02365 21.6173 1.07964 21.6173C1.13564 21.6173 14.8621 21.6173 14.8621 21.6173C20.6972 21.6173 23.1427 19.2477 23.1427 15.6373C23.1427 12.9294 21.9204 11.2374 19.4197 10.6166V10.5598C20.9754 10.0517 22.4209 8.92378 22.4209 6.10301C22.4209 2.26707 19.8642 0.969482 14.3073 0.969482H1.0254C0.969399 0.969482 0.969399 1.02632 1.0254 1.08228C1.69212 1.19507 1.97036 1.25192 2.46996 1.53346C2.85844 1.70487 2.85844 2.04326 2.85844 2.60724Z" fill="#373737"/>
<path d="M39.4814 1.08399C39.8148 1.08399 40.3704 1.08399 40.3152 1.9304C40.2592 2.60717 36.6474 7.79754 36.258 8.58711C34.9797 6.61274 32.2008 2.66401 32.2008 1.9304C32.2008 1.30958 32.7013 1.08399 33.1458 1.08399C33.1458 1.08399 33.2018 0.971191 33.1458 0.971191H23.1992C23.1432 0.971191 23.1432 1.02803 23.1992 1.08399C23.6437 1.14083 23.8108 1.19678 24.3104 1.47922C24.3664 1.53606 24.5327 1.59201 24.5887 1.64885C24.922 1.93129 25.1443 2.21283 25.5336 2.77681L32.5911 13.3254V19.9253C32.5911 20.4892 32.5351 20.8276 32.2017 21.0532C31.7012 21.2788 31.4239 21.3916 30.8123 21.5044C30.8123 21.5044 30.7563 21.6172 30.8123 21.6172H41.6487C41.7047 21.6172 41.7047 21.5604 41.6487 21.5044C41.0931 21.3916 40.7597 21.2788 40.2592 21.0532C39.8699 20.8836 39.8699 20.4892 39.8699 19.9253V13.3254L46.8722 2.77681C47.2616 2.21283 47.4838 1.87444 47.8172 1.59201C47.8732 1.53517 47.9843 1.42237 48.0954 1.42237C48.3736 1.25274 48.5399 1.13994 48.8733 1.08399C48.8733 1.08399 48.9293 0.971191 48.8733 0.971191H39.4814C39.4263 0.971191 39.4263 1.02803 39.4814 1.08399Z" fill="#373737"/>
</svg>

<svg width="75" height="22" viewBox="0 0 75 22" fill="none" xmlns="http://www.w3.org/2000/svg"><path d="M72.436 2.607c0-.564.056-.902.39-1.128.5-.225.777-.338 1.389-.45 0 0 .056-.114 0-.114h-10.28c-.057 0-.057.057 0 .113.555.113.888.226 1.389.451.389.17.389.564.389 1.128v10.436c0 2.37-1.334 4.174-4.001 4.174-2.668 0-4.002-1.804-4.002-4.174V2.607c0-.564.056-.902.39-1.128.5-.225.778-.338 1.39-.45 0 0 .055-.114 0-.114h-9.672c-.056 0-.056.057 0 .113.334.057.556.17.778.395.334.283.39.621.39 1.185v10.21c0 4.908 2.667 9.138 10.725 9.138 8.057 0 10.725-4.174 10.725-9.138V2.608zM9.36 4.864h3.113c2.056 0 3.223.338 3.223 2.2 0 1.24-.723 2.313-3.168 2.313H9.305V4.864h.055zm0 7.671h2.723c1.778 0 4.001 0 4.001 2.538 0 1.862-1.555 2.539-3.723 2.539h-3v-5.077zM2.858 2.607v17.318c0 .564-.056.903-.389 1.128-.5.226-.778.339-1.39.451 0 0-.055.113 0 .113h13.783c5.835 0 8.28-2.37 8.28-5.98 0-2.708-1.222-4.4-3.722-5.02v-.057c1.555-.508 3-1.636 3-4.457 0-3.836-2.556-5.134-8.113-5.134H1.025c-.056 0-.056.057 0 .113.667.113.945.17 1.445.451.388.172.388.51.388 1.074zm36.623-1.523c.334 0 .89 0 .834.846-.056.677-3.668 5.868-4.057 6.657-1.278-1.974-4.057-5.923-4.057-6.657 0-.62.5-.846.945-.846 0 0 .056-.113 0-.113h-9.947c-.056 0-.056.057 0 .113.445.057.612.113 1.111.395.056.057.223.113.279.17.333.282.555.564.945 1.128l7.057 10.548v6.6c0 .564-.056.903-.39 1.128-.5.226-.777.339-1.389.451 0 0-.056.113 0 .113H41.65c.056 0 .056-.057 0-.113a5.746 5.746 0 01-1.39-.45c-.39-.17-.39-.565-.39-1.129v-6.6l7.003-10.548c.39-.564.612-.903.945-1.185.056-.057.167-.17.278-.17.279-.17.445-.282.778-.338 0 0 .056-.113 0-.113h-9.392c-.055 0-.055.057 0 .113z" fill="#373737"/></svg>
